X: 1
T: Liberty for All
C: Sean Beckett 2019
%R: jig
F: http://ancients.sudburymuster.org/mus/sng/pdf/libertyallC0.pdf
Z: 2020 John Chambers <jc:trillian.mit.edu>
M: 6/8
L: 1/8
QP 3/8=95
K: G
|: (3D/E/F/ |\
G2A B2G | A2B c3 | Bcd c2A |\
[1,3 G3 F2 :|[2,4 G3- G2 :: d |\
d3 B2d | c3 A3 | B2A G2B |
A2F D3 |\
[1 d3 B2d | c3 A3 | DDD B2A | G3- G2 :|\
[2 E2E F2F | G2G A3 | BGE D2F | G3- G2 |]
